X: 11797
T: Ellen O'Dwyer's
R: slide
M: 12/8
K: Adorian
|:gf|e2 A AGA e2 f g2 e|d2 G GFG BAB dcd|
e2 A AGA e2 f g2 e|d2 B g2 B A3 A:|
|:B/c/d|e2 a aga aga age|d2 g gfg gfg ged|
e2 a aga aga age|d2 B g2 B A3 A:|

